src/main/resources/icons/AllIcons/fileTypes/uiForm.svg

<svg xmlns="http://www.w3.org/2000/svg" width="16" height="16" viewBox="0 0 16 16"><rect id="frame" width="16" height="16" fill="none"/><g fill="#9AA7B0" fill-opacity=".8" fill-rule="evenodd"><path d="M7 1L3 5h4z"/><path d="M5 9h6V7H5v2zm0 4h6v-3H5v3zM8 1v5H3v9h10V1H8z"/></g></svg>

<!-- Copyright 2000-2021 JetBrains s.r.o. Use of this source code is governed by the Apache 2.0 license that can be found in the LICENSE file. -->
<svg xmlns="http://www.w3.org/2000/svg" width="16" height="16" viewBox="0 0 16 16">
  <g fill="none" fill-opacity=".8" fill-rule="evenodd">
    <polygon fill="#9AA7B0" points="7 1 3 5 7 5"/>
    <path fill="#9AA7B0" d="M5,9 L11,9 L11,7 L5,7 L5,9 Z M5,13 L11,13 L11,10 L5,10 L5,13 Z M8,1 L8,6 L3,6 L3,15 L13,15 L13,1 L8,1 Z"/>
  </g>
</svg>
